X: 1830
T: Are You Joanie Madden?
R: slip jig
M: 9/8
K: Dmajor
DED DFA Bdd|se3 ede fdB|ABA AFD FAA|BAB dAF ~E3|
DED DFA Bdd|se3 ede fdB|ABA AFA B/c/d F|1 EDE FDB D3:|2 EDE FDB d3||
|:sa3 afd faa|b2e edB efg|afa gfe d2A|BAB dAF E3|
[1 aba afd faa|b2e edB efg|afa gfe d2A|B/c/d F EDB D3:|
[2 DED DFA Bdd|se3 ede fdB|ABA AFA B/c/d F|EDE FDB D3||

